X: 16310
T: Groves Of Blackpool, The
R: slip jig
M: 9/8
K: Dmajor
|:d|A2 G FGE D2 F|AFD EFA B2 d|ABG FGE DD/E/F|A2 D EFA B2:|
|:c|dcd edc BAF|dB/c/d edc B2 d/e/|fd/e/f edc B/c/dB|AFD EE/F/A B2:|

